static/truck.svg

<?xml version="1.0" encoding="utf-8"?><!-- Uploaded to: SVG Repo, www.svgrepo.com, Generator: SVG Repo Mixer Tools -->
<svg width="800px" height="800px" viewBox="0 0 24 24" fill="none" xmlns="http://www.w3.org/2000/svg">
<path fill-rule="evenodd" clip-rule="evenodd" d="M3 3C1.34315 3 0 4.34315 0 6V15C0 16.3121 0.842366 17.4275 2.01581 17.8348C2.18436 19.6108 3.67994 21 5.5 21C7.26324 21 8.72194 19.6961 8.96456 18H15.0354C15.2781 19.6961 16.7368 21 18.5 21C20.3201 21 21.8156 19.6108 21.9842 17.8348C23.1576 17.4275 24 16.3121 24 15V10.7515C24 10.0248 23.7362 9.32283 23.2577 8.77596L20.8502 6.02449C20.2805 5.37344 19.4576 5 18.5925 5H16.8293C16.4175 3.83481 15.3062 3 14 3H3ZM4 17.4361V17.5639C4.03348 18.3634 4.69224 19.0013 5.5 19.0013C6.30776 19.0013 6.96652 18.3634 7 17.5639V17.4361C6.96652 16.6366 6.30776 15.9987 5.5 15.9987C4.69224 15.9987 4.03348 16.6366 4 17.4361ZM5.5 14C6.8962 14 8.10145 14.8175 8.66318 16H15.3368C15.8985 14.8175 17.1038 14 18.5 14C19.8245 14 20.9771 14.7357 21.5716 15.8207C21.8306 15.64 22 15.3398 22 15V11H17C15.8954 11 15 10.1046 15 9V6C15 5.44772 14.5523 5 14 5H3C2.44772 5 2 5.44772 2 6V15C2 15.3398 2.16945 15.64 2.42845 15.8207C3.02292 14.7357 4.17555 14 5.5 14ZM17 7V8C17 8.55229 17.4477 9 18 9H20.7962L19.345 7.34149C19.1552 7.12448 18.8808 7 18.5925 7H17ZM17 17.4361V17.5639C17.0335 18.3634 17.6922 19.0013 18.5 19.0013C19.3078 19.0013 19.9665 18.3634 20 17.5639V17.4361C19.9665 16.6366 19.3078 15.9987 18.5 15.9987C17.6922 15.9987 17.0335 16.6366 17 17.4361Z" fill="#0F0F0F"/>
</svg>

<svg xmlns="http://www.w3.org/2000/svg" width="800" height="800" fill="none" viewBox="0 0 24 24"><path fill="currentColor" fill-rule="evenodd" d="M3 3a3 3 0 0 0-3 3v9a3 3 0 0 0 2.02 2.83 3.5 3.5 0 0 0 6.94.17h6.08a3.5 3.5 0 0 0 6.94-.17A3 3 0 0 0 24 15v-4.25a3 3 0 0 0-.74-1.97l-2.41-2.76A3 3 0 0 0 18.59 5h-1.76A3 3 0 0 0 14 3zm1 14.44v.12a1.5 1.5 0 0 0 3 0v-.12a1.5 1.5 0 0 0-3 0M5.5 14c1.4 0 2.6.82 3.16 2h6.68a3.5 3.5 0 0 1 6.23-.18A1 1 0 0 0 22 15v-4h-5a2 2 0 0 1-2-2V6a1 1 0 0 0-1-1H3a1 1 0 0 0-1 1v9a1 1 0 0 0 .43.82A3.5 3.5 0 0 1 5.5 14M17 7v1a1 1 0 0 0 1 1h2.8l-1.46-1.66A1 1 0 0 0 18.6 7zm0 10.44v.12a1.5 1.5 0 0 0 3 0v-.12a1.5 1.5 0 0 0-3 0" clip-rule="evenodd"/></svg>
